X:836
M:C|
L:1/8
K:F
|:a|fc~c>f d>f^cA|B>AGF EGGe|1 ~fcc>f d>efg|afge ~f2f:|2
fcdB Acfg|afge f~f||

